Adwaita++/devices/16/drive-harddisk-ieee1394.svg

<svg height="16" width="16" xmlns="http://www.w3.org/2000/svg">
  <g fill="#474747">
    <path d="m8 3a4 4 0 0 1 4 4c0 2.21-1.813 4.312-4 4h-4v-4a4 4 0 0 1 4-4zm0 2a2 2 0 1 0 0 4 2 2 0 0 0 0-4z"/>
    <path d="m3.197 0a2.217 2.217 0 0 0 -2.197 2.201v11.599c0 1.199.995 2.2 2.197 2.2h9.607a2.215 2.215 0 0 0 2.196-2.201v-11.599c0-1.199-.994-2.2-2.196-2.2zm0 2h9.607c.124 0 .196.07.196.201v11.599c0 .13-.072.201-.196.201h-9.607c-.124-.001-.197-.071-.197-.202v-11.599c0-.13.073-.201.197-.201z"/>
  </g>
</svg>

<svg xmlns="http://www.w3.org/2000/svg" width="16" height="16">
    <g fill="#2e3436">
        <path d="M8 3a4 4 0 0 1 4 4c0 2.21-1.813 4.312-4 4H4V7a4 4 0 0 1 4-4zm0 2a2 2 0 1 0 0 4 2 2 0 0 0 0-4z"/>
        <path d="M3.197 0A2.217 2.217 0 0 0 1 2.201V13.8C1 14.999 1.995 16 3.197 16h9.607A2.215 2.215 0 0 0 15 13.799V2.2C15 1.001 14.006 0 12.804 0zm0 2h9.607c.124 0 .196.07.196.201V13.8c0 .13-.072.201-.196.201H3.197C3.073 14 3 13.93 3 13.799V2.2c0-.13.073-.201.197-.201z" style="line-height:normal;font-variant-ligatures:normal;font-variant-position:normal;font-variant-caps:normal;font-variant-numeric:normal;font-variant-alternates:normal;font-feature-settings:normal;text-indent:0;text-align:start;text-decoration-line:none;text-decoration-style:solid;text-decoration-color:#000;text-transform:none;text-orientation:mixed;shape-padding:0;isolation:auto;mix-blend-mode:normal;marker:none" color="#bebebe" font-weight="400" font-family="sans-serif" white-space="normal" overflow="visible"/>
    </g>
</svg>
